X: 1
T: Joyous
M: 3/4
L: 1/8
R: waltz
K: Dmaj
% A section
A2>A2|| A2B2c2 | d2e2=f2 | f6 |-fzf ef|
a2>f2df|a2>f2df | g6 |-g2A2>A2 |
A2c2 e2|e2 ^d2e2| g6 |-g2f2g2|
a2b2>c'2| c'2b2a2 | fga4|-a2A2>A2|A2B2c2|
d2e2=f2|f6|-f2zf ef|
a2>g2fe|d2 &quot; 4&quot;d'2>d'2| b6 |- b2 z2z2|
b6|-b2 aggf|
fga4|-az gffe|eggbb2|ceeaa2| d6|-d2B2A2||
% B section
f6| e4f2|e4 d2|d2>FA2|
d2>FA2|d2>FA2|c4B2|B6|
g6 |-g2f2>g2|f4 e2|e2 ^d2e2| a2>a2a2|
a2e2=f2|f6|ABcde=f|
f6|-f2e2>f2|e4^d2|^d4B2|b6|-b2a2>b2|a4^g2|g6|
e2eee2|b2bbb2|A2d2f2|g4f2|
BBB4|ccc4|d6|-d2>z2 B2A2||
%C section
f6|-f2d2>g2|f4=f2|e2g2c2|d6|-d2c2>e2|
d6| ABcdef|g6|-g2f2>a2|g6|
f2a2f2| e6|-e2^d2>f2| e2 a2z2| ABcde=f|
f6|-f2d2>g2|f4=f2|e2g2c2|d6|-d2c2>e2|d6|A4_B2|
B6|g6|f2a2f2|e2B2g2|f6| e6|d6|-d2z2z2||
%D section
d6|c6|B2>c2d2|A6|-A2dc2B|d4B2|e6|d6|
e6|d6|c4=c2|B6|B2_B2=B2|d2c2=c2|B4_B2|A6|d6|c6|B2>c2d2|
A6|-A2dc2B|d4B2|e6|d6|e6|d6|c4B2|A6|
c2>B2A2|G2F2E2|D6| -D2z2z2|]
